!!!OTL: Der Morgen tagt, hinaus zur Jagd!
!!!OTL-incipit: DER MORGEN TAGT HINAUS ZUR JAGD
!!!COM: G. W. Fink
!!!ARE: Europa, Mitteleuropa, Deutschland
!!!SCT: F0635
!!!TXL: @@DE
!!!YEM: Copyright 1995, estate of Helmut Schaffrath.
**kern	**text	**text
*ICvox	*	*
*clefG2	*	*
*M6/8	*	*
*k[b-e-a-]	*	*
*E-:	*	*
!LO:TX:a:t=Munter.	!	!
!LO:TX:a:t=P:only the highest voice encoded:problem	!	!
{8ee-	1._Der	2._Die
=1	=1	=1
4ee-	Morgen	Hund-
8b-/	.	-de
4b-/	tagt,	los,
8gg	hin-	den
=2	=2	=2
4gg	-aus	Jä-
8ee-	ʒur	-gertroß,
4ee-}	Jagd!	.
{8ee-	hin-	die
=3	=3	=3
[8ff	-aus,	Hunde,
8ff]	.	.
8ff	hin-	den
(8ffL	-aus	Jäger-
8ee-J)	.	.
8ff	ʒur	.
=4	=4	=4
[4.gg	Jagd!	-troß!
8gg]	.	.
8r}	.	.
{8gg	leicht	Die
=5	=5	=5
4ff	ü-	Bürſche
8ee-	-ber	.
(8ddL	Haid'	an
8ee-J)	.	.
8ff	und	der
=6	=6	=6
4.gg	1._Felder	2._Seite,
8ee-	.	.
8r}	.	.
{8gg	in's	ʒieht
=7	=7	=7
4ff	dunkle	froh
8ee-	.	hin-
8ddL	Grün	-aus
8ee-J	.	.
8ff	der	in's
=8	=8	=8
4.gg	Wälder,	Weite!
8ee-	.	.
8r}	.	.
{8ee-	Auf,	Halloh!
=9	=9	=9
4ee-	auf!	.
8ee-	ihr	nun
8ffL	Brüder	ohn'
8ee-J	.	.
8ff	.	Verluſt
=10	=10	=10
4gg}	auf!	.
{8ff	im	ge-
8ff/L	raſchen	-nießt
8ee-J	.	.
8ff/	.	die
=11	=11	=11
4.gg;	Lauf,	Luſt!
4r}	.	.
{8aa-	ſetʒt	Wir
=12	=12	=12
4aa-	über	fin-
8gg	Schlucht	-den
8ffL	.	nur
8ee-J	.	.
8ff	und	Ver-
=13	=13	=13
4.gg	1._Gräben	-2._gnügen
8ee-	.	.
8r}	.	.
{8aa-	durch's	auf
=14	=14	=14
4aa-	muntre	un-
8gg	.	-ſern
8ffL	Jä-	muntern
8ee-J	.	.
8ff	-ger-	.
=15	=15	=15
4.gg	-le-	Ʒü-
8ee-	-ben!	-gen.
8r}	.	.
{8ee-	Auf,	Hal-
=16	=16	=16
4ee-	auft	-loh!
8ff	ihr	nun
(8ff	Brüder,	ohn'
8ee-)	.	.
8ff	auf	Ver-
=17	=17	=17
4gg}	auf!	-luſt
{8ff	im	genießt
4ff	ra-	.
8ee-	-ſchen	die
=18	=18	=18
[4.ee-	Lauf!	Luſt!
8ee-]	.	.
8r}	.	.
{8gg	Hal-	Hur-
=19	=19	=19
[4.gg	-1._loh!	-2._rah!
4gg]	.	.
8ee-	hal-	hur-
=20	=20	=20
4dd	-loh,	-rah,
8dd	der	die
8dd/L	Morgen	Hun-
8ee-J	.	.
8ff/	.	-de
=21	=21	=21
4ee-/	tagt	los,
8ee-/	halloh!	hurrah!
8ee-/	.	.
8r}	.	.
{8gg	hal-	hur-
=22	=22	=22
4gg	-loh,	-rah,
8ff	hinaus	die
4ff	.	Hunde
8ee-/	ʒur	.
=23	=23	=23
[>4.ee-/	Jagd	los,
8ee-/]	.	.
8r}	.	.
{8gg/	hin-	den
=24	=24	=24
[>4.bb-/	-aus	Jä-
8bb-/L]	.	.
8aa-/J	.	.
8ff/	ʒur	-ger-
=25	=25	=25
4.ee-/	Jagd!	-troßt!
4r}	.	.
==	==	==
!!!AGN: Staende -, Jaeger - Lied
!!!ONB: ESAC (Essen Associative Code) Database: FINK
!!!AMT: compound duple
!!!AIN: vox
!!!EED: Helmut Schaffrath
!!!EEV: 1.0
!!!RDF**kern: > = above
!!!GTL: Soldaten- und Jaegerlieder
!!!source: Musikalischer Hausschatz der Deutschen. Eine Sammlung von über 1000 Liedern und Gesängen mit Singstimmen und Klavierbegleitung. Leipzig, Litterarisches Verlags-Haus.
!!!page: 419
!!!URL-scan: https://www.digitale-sammlungen.de/en/view/bsb11144622?page=387
!!!ENC: Anna Maria Matuszewska
!!!EEV: 2024/08/05
*-	*-	*-
